!!!OTL: HILDEBRAND UND SEIN SOHN HADUBRAND
!!!ARE: Europa, Mitteleuropa, Deutschland
!!!SCT: F0824
!!!YEM: Copyright 1995, estate of Helmut Schaffrath.
**kern
*ICvox
*Ivox
*M2/4
*k[f#]
*G:
=1
{8g
8g
4g
=2
8b
8g
4b
=3
4.dd
8dd
=4
4dd
4r}
=5
{8g
8g
4g
=6
8a
8g
4a
=7
4.b
8b
=8
4b
4r}
=9
{12cc
12b
12a
12g
12f#
12e
=10
4d#
4e}
=11
{12f#
12g
12a
12g
12a
12b
=12
4dd
4b}
=13
{12cc
12b
12a
12g
12f#
12e
=14
2b
=15
2b}
==
!!!AGN: erzaehlendes Volks - Lied, Ballade, Hildebrand - Lied
!!!ONB: ESAC (Essen Associative Code) Database: FINK
!!!AMT: simple duple
!!!AIN: vox
!!!EED: Helmut Schaffrath
!!!EEV: 1.0
*-
